X:44
T:B-4-C
L:1/8
M:6/8
D:"Lia Luachra" by Lia Luachra
Z:Transcribed by Lionel Gueganton
R:jig
K:Bb
| B2B, DFB       | =Bcc c_BA | B/c/BG FDB, | D_ED CB,A,
| B,/B,/B,B, DCD | B,DF GFD  | FAB cBA     | Bdc B/c/BA
| B2B, DFB       | =Bcc c_BA | B/c/BG FDB, | D/_E/FD C/B,/B,A,
| B,/B,/B,B, DCD | B,DF GFD  | FAB cBA     | Bdc B/c/BA
| B/B/cd cBA     | Bdg fdf   | g2f d_d=d   | g/a/ba g2a
| bag agf        | gfd cAF   | GAB cBA     | Bdc B/c/BA
| B/B/cd cBA     | Bdg fdc   | BBG FDB,    | D/_E/FD C/B,/B,A,
| B,B,B, DC/D/D  | B,DF GFD  | FAB cBA     | Bdc B/c/BA        |

